!!!COM: Bach, Johann Sebastian
!!!OTL: Sinfonia No. 9; in f minor; BWV 795
!! Three-part sinfonia
!! Bach-Gesellschaft edition, pp.30-31
!! Performance duration: 3:22; performance tempo: 41.6 quarter-notes per minute.
!! (Andras Schiff, piano, "Two-Part Inventions BWV 772a-786; Three-part
!! Inventions BWV 787-801" Decca 411 974-2)
**kern	**kern	**kern
*staff2	*staff1	*staff1
*M4/4	*M4/4	*M4/4
*MM41.6	*MM41.6	*MM41.6
*f:	*f:	*f:
=1	=1	=1
4FF	8r	1r
.	{8f	.
4F	8a-	.
.	8g}	.
4En	8r	.
.	{8g	.
4E-	8b-	.
.	8an}	.
=2	=2	=2
4Dn	8r	1r
.	8b-	.
4D-	8een	.
.	[8ff	.
8C	8ff]	.
8BB-	16ee-	.
.	16dd-	.
8C	8cc	.
8CC	8b-	.
=3	=3	=3
4FF	4a-	8r
.	.	8cc
8r	4cc	8ee-
{16F	.	8ddn
32G	.	.
32A-}	.	.
16A-	4bn	8r
16F#	.	.
8G	.	8dd
8r	4b-	8ff
16g	.	8een
16en	.	.
=4	=4	=4
16d-	4an	8r
16Bn	.	.
8c	.	8ff
8r	4a-	8bbn
16dn	.	[8ccc
32e-	.	.
32f	.	.
8e-	8g	8ccc]
8f	4cc	16bb-
.	.	16aa-
8g	.	8gg
8G	8bn	8ff
=5	=5	=5
4c	4cc	8ee-
.	.	8gg
4r	8r	8aa-
.	8cc	8gg
2r	8dd-	[4ff
.	8cc	.
.	[4b-	16ff]
.	.	16gg-
.	.	16een
.	.	16ff
=6	=6	=6
1r	16b-]	4een
.	16cc	.
.	16an	.
.	16b-	.
.	4a	16r
.	.	16ccc
.	.	16ff
.	.	16ee-
.	16b-	[4dd-
.	16g-	.
.	16en	.
.	16f	.
.	4e-	16dd-]
.	.	16ggn
.	.	16cc
.	.	16b-
=7	=7	=7
8r	4f	4a-
8F	.	.
8A-	8r	4ff
8G	16b-	.
.	32cc	.
.	32dd-	.
8r	16dd-	4een
.	16bn	.
8G	8cc	.
8B-	8r	4ee-
8An	16cc	.
.	16an	.
=8	=8	=8
8r	16g-	4ddn
.	16en	.
8B-	8f	.
8en	8r	4dd-
[8f	16gn	.
.	32a-	.
.	32b-	.
8f]	8.a-	8cc
16e-	.	4ff
16d-	16b-	.
8c	8a-	.
8B-	8g	8een
=9	=9	=9
4A-	8f	8ff
.	8c	4ee-
4An	8g-	.
.	8f	16dd-
.	.	16cc
8B-	8r	4dd-
4A-	8f	.
.	8cc-	4ddn
16G	[8b-	.
16F	.	.
=10	=10	=10
8G	8b-]	8ee-
8c	4a-	8ee-
4dn	.	8ccc-
.	16g-	8bb-
.	16f	.
8e-	4g-	8r
4d-	.	8b-
.	4gn	8ff-
16c	.	[8ee-
16B-	.	.
=11	=11	=11
4c	8a-	16ee-]
.	.	16b-
.	8A-	16cc
.	.	16a-
4A-	8c	8f
.	8B-	16ddn
.	.	32ee-
.	.	32ff
4G	8r	16ff
.	.	16dd
.	8B-	8ee-
4G-	8d-	8r
.	8c	16ee-
.	.	16cc
=12	=12	=12
4F	8r	16an
.	.	16g
.	8d-	8a-
4F-	8g	8r
.	[8a-	16b-
.	.	32cc
.	.	32dd-
8E-	8a-]	8.cc
8D-	16g	.
.	16f	16b-
8E-	8e-	4gM
8EE-	8d-	.
=13	=13	=13
4AA-	4c	8a-
.	.	8e-
8r	4e-	8g-
16An	.	8f
32B-	.	.
32c	.	.
16c	4dn	8r
16A	.	.
8B-	.	8f
8r	4d-	8a-
16B-	.	8gn
16G	.	.
=14	=14	=14
16En	4c	8r
16Dn	.	.
8E-	.	8a-
8r	4c-	8ddn
16F	.	[8ee-
32G	.	.
32A-	.	.
8G	8B-	8ee-]
8A-	4e-	16dd-
.	.	16cc
8B-	.	8b-
8BB-	8dn	8a-
=15	=15	=15
4E-	4e-	8g
.	.	8b-
8r	4b-	8dd-
8E-	.	8cc
8G-	4an	8r
8F	.	8cc
8r	4cc	8ee-
8F	.	8ddn
=16	=16	=16
8A-	4b-	8r
8Gn	.	8ddn
8r	4dd-	8ff
8G	.	[8een
8B-	8cc	8ee]
8A-	8f	8cc
8r	8a-	4ff
8B-	8g	.
=17	=17	=17
8D-	8r	4een
8C	8g	.
8r	8b-	4gg
8c	8an	.
8E-	8r	4ff
8Dn	8an	.
8r	8cc	4aa-
8dn	8bn	.
=18	=18	=18
8F	8r	4gg
8E-	8c	.
8r	8e-	4cc
16FF	8dn	.
32GG	.	.
32AA-	.	.
16AA-	8r	4bn
16FF#	.	.
8GG	8d	.
8r	8f	4b-
16G	8en	.
16En	.	.
=19	=19	=19
16D-	8r	4an
16BBn	.	.
8C	8f	.
8r	8bn	4a-
16Dn	[8cc	.
32E-	.	.
32F	.	.
8E-	8cc]	8g
8F	16b-	4cc
.	16a-	.
8G	8g	.
8GG	8f	8bn
=20	=20	=20
8C	4e-	8cc
8CC	.	4b-
8D-	4en	.
8C	.	16a-
.	.	16g
8r	8f	4a-
8C	4e-	.
8G-	.	4an
[8F	16dn	.
.	16c	.
=21	=21	=21
8F]	8dn	8b-
4E-	8g	8b-
.	4an	8gg-
16D-	.	8ff
16C	.	.
4D-	8b-	8r
.	4a-	8f
4Dn	.	8cc-
.	16gn	[8b-
.	16f	.
=22	=22	=22
8E-	8g	8b-]
8BB-	16f	4a-
.	16e-	.
8c-	4dn	.
8B-	.	16g-
.	.	16f
8r	8e-	4g-
8BB-	4d-	.
8F-	.	4gn
[8E-	16cn	.
.	16B-	.
=23	=23	=23
8E-]	8c	8a-
4D-	8f	8a-
.	4g	8ff-
16C-	.	8ee-
16BB-	.	.
4C-	8a-	8r
.	4g-	8e-
4Cn	.	8b--
.	16fn	[8a-
.	16e-	.
=24	=24	=24
8D-	4f	8a-]
8D-	.	8a-
8F	8r	4dd-
8E-	16gn	.
.	32a-	.
.	32b-	.
8r	16b-	4cc
.	16g	.
8E-	8a-	.
8G-	8r	4cc-
8F	16a-	.
.	16f	.
=25	=25	=25
8r	16dn	4b-
.	16c	.
8G-	8d-	.
8c	8r	4b--
[8d-	16e-	.
.	32f	.
.	32g-	.
8d-]	8.f	8a-
16c	.	4dd-
16B-	16g-	.
8A-	8f	.
8G-	8e-	8cc
=26	=26	=26
4F	4d-	8dd-
.	.	8a-
8r	4a-	8cc-
16Dn	.	8b-
32E-	.	.
32F	.	.
16F	4gn	8r
16D	.	.
8E-	.	8b-
8r	4g-	8dd-
16E-	.	8ccn
16C	.	.
=27	=27	=27
16AAn	4f	8r
16GG	.	.
8AA-	.	8dd-
8r	4f-	8gg
16B-	.	[8aa-
32c	.	.
32d-	.	.
8c	8e-	8aa-]
8d-	4a-	16gg
.	.	16ff
8e-	.	8ee-
8E-	8g	8dd-
=28	=28	=28
4A-	8a-	4cc
.	8e-	.
8r	8g-	4ee-
8A-	8f	.
8c-	8r	4ddn
8B-	8f	.
8r	8a-	4ff
8B-	8gn	.
=29	=29	=29
8d-	8r	4ee-
8c	8g	.
8r	8b-	4gg-
8c	[8an	.
8e-	8a]	8ff
8d-	8f	8b-
8r	4b-	8dd-
8e-	.	8cc
=30	=30	=30
8G-	4an	8r
8F	.	8cc
8r	4cc	8ee-
8f	.	8ddn
8A-	4b-	8r
8Gn	.	8dd
8r	4dd-	8ff
8g	.	[8een
=31	=31	=31
8B-	4cc	8ee]
8A-	.	8f
8r	4f	8a-
16B-	.	8g
32c	.	.
32d-	.	.
16d-	4en	8r
16Bn	.	.
8c	.	8g
8r	4e-	8b-
16c	.	8an
16An	.	.
=32	=32	=32
16G-	4dn	8r
16En	.	.
8F	.	8b-
8r	4d-	8een
16Gn	.	[8ff
32A-	.	.
32B-	.	.
8A-	8c	8ff]
8B-	4f	16ee-
.	.	16dd-
8c	.	8cc
8C	8en	8b-
=33	=33	=33
4FF	8f	4a-
.	8F	.
4F	8A-	8r
.	8G	16b-
.	.	32cc
.	.	32dd-
4En	8r	16dd-
.	.	16bn
.	8G	8cc
4E-	8B-	8r
.	8An	16ccc
.	.	16aan
=34	=34	=34
4Dn	8r	16gg-
.	.	16een
.	8B-	8ff
4D-	8en	8r
.	[8f	16gn
.	.	32a-
.	.	32b-
8C	8f]	8.a-
8BB-	16e-	.
.	16d-	16g
8C	8c	8.en
8CC	8B-	.
.	.	16f
=35	=35	=35
1FF;	1An;	1f;
====	====	====
*-	*-	*-
